X: 173
T: Delights of Inchicore 
N: 042000
C: BB
R: jig
N: revised 1/11/07
Q: 340
M: 6/8
L: 1/8
K: G 
A|"G"DGA BAG|"Am"AcA "D"AFE|"G"DGB d^cd|"A"ed^c "D"d2 A|
"G"DGA BAG|"Am"AcA ABc|"G"ded "Am"cAF|"D"DEF "G"G2 :|
A|"G"dgg Bdg|"D"a^ga fed|"G"BGB "C"cBc|"A"ed^c "D"d2 A|
"G"dgg aga | "Em"bag "D"fdc |"G"Bcd "Em"BGE | "D"DEF "G"G2 :|
%%%%%%%%%%%%%%%%%%%%%%%%%%%%%%%%%%%%%%%%%%%
